X:356
T:Pick-A-Lilly
C:Mike Lilly & Wendy Miller
N:"Newgrass Instrumentals" Homestead 90017 Transcribed by John Baldry in "Bluegrass and Old-Time Mandolin" Transcribed by Mike Stangeland
R:bluegrass
L:1/8
Q:1/4=250
M:4/4
K:C
z2 e2 f2 ^f2 |: "C"ga gf ef ed | cd c_B AB AG | "F"FG FE D2 C_B, | A,2 [FA,]A, [F2A,2] A,A, | 
"G"G,A, B,B, B,D GG |1 GA Bd g4 | [g2B2D2G,2] f2 e2 d2 | "C"c2 e2 f2 ^f2 :|2 G"G"A Bd g2 ga | 
gf ef e2 d2 | "C"c2 B2 c2 ^c2 | 
K:G
"G"dd dB BA de | g2 dg ga ge | "D7"ff fg fd d^c | c2 c2 cc c2 | DE FA AB de | 
fa fe dc ^AB | "G"GA ^AB G=F D2 | G,2 G,G, G,2 D2 | G,A, B,D DE GA | BB dg gg ae | 
"D7"f2 fg fd ^c2 | c2 cc c2 fg | a2 a2 fg fe | dc zc cA ^AB | "G"G2 B2 G2 F2 | 
=F2 e2 =f2 ^f2 | 
K:C
[e8c8E8] | 


